storage/app/icons/tabler/filled/exposure.svg

<!--
unicode: "10124"
version: "3.29"
-->
<svg
  xmlns="http://www.w3.org/2000/svg"
  width="24"
  height="24"
  viewBox="0 0 24 24"
  fill="currentColor"
>
  <path d="M19 2a3 3 0 0 1 3 3v14a3 3 0 0 1 -3 3h-14a3 3 0 0 1 -3 -3v-14a3 3 0 0 1 3 -3zm0 2h-14a1 1 0 0 0 -1 1v14c0 .29 .123 .55 .321 .732l1.61 -1.584a973 973 0 0 0 6.69 -6.675l7.094 -7.173a1 1 0 0 0 -.715 -.3m-1 11h-4a1 1 0 0 0 0 2h4a1 1 0 0 0 0 -2m-10 -10a1 1 0 0 1 1 1v1h1a1 1 0 0 1 .993 .883l.007 .117a1 1 0 0 1 -1 1h-1v1a1 1 0 0 1 -.883 .993l-.117 .007a1 1 0 0 1 -1 -1v-1h-1a1 1 0 0 1 -.993 -.883l-.007 -.117a1 1 0 0 1 1 -1h1v-1a1 1 0 0 1 .883 -.993z" />
</svg>

<svg xmlns="http://www.w3.org/2000/svg" width="24" height="24" fill="currentColor" viewBox="0 0 24 24"><path d="M19 2a3 3 0 0 1 3 3v14a3 3 0 0 1-3 3H5a3 3 0 0 1-3-3V5a3 3 0 0 1 3-3zm0 2H5a1 1 0 0 0-1 1v14c0 .29.123.55.321.732l1.61-1.584a973 973 0 0 0 6.69-6.675L19.715 4.3A1 1 0 0 0 19 4m-1 11h-4a1 1 0 0 0 0 2h4a1 1 0 0 0 0-2M8 5a1 1 0 0 1 1 1v1h1a1 1 0 0 1 .993.883L11 8a1 1 0 0 1-1 1H9v1a1 1 0 0 1-.883.993L8 11a1 1 0 0 1-1-1V9H6a1 1 0 0 1-.993-.883L5 8a1 1 0 0 1 1-1h1V6a1 1 0 0 1 .883-.993z"/></svg>
